X: 32164
T: Peter Street
R: reel
M: 4/4
K: Gmajor
G2 (3BAG dG (3BAG|dGgG fGeG|dG (3BAG dGeG|ADcD BDAD|
G2 (3BAG dG (3BAG|dGgG fGeG|dedB dgdB|AGAB G4:|
|:D2 (3FED AD (3FED|ADcD BDAD|G2 (3BAG dG (3BAG|dGgG fGeG|
d^cdB gfge|d^cdB gfge|dBgf edcB|AGFE DEFD:|

